X:215
T:My Love is in America (reel) 
B:CRE2.271 (I MeiriceÃÂÃÂÃÂÃÂ¡ atÃÂÃÂÃÂÃÂ¡ mo GhrÃÂÃÂÃÂÃÂ¡-sa)
F:file ID: cre.2/215my_love
N:In the CRE version there are C naturals only in
measures 1,3, and 5, not throughout the tune as it
is usually played today. In the first version below
I've kept to the CRE setting, and in the second version
I've added the C naturals as the current version of
the tune (as I hear it).
L:1/8
M:C
R:reel
Q:180
K:D
FEFG AB=cB|Addc AddG|FEFG AB=cA|G2AG FDD2|
FEFG AB=cB|Adce defg|af (3gfe fdec|dcAG FDD2:|
(3fga dg fdec|Addc Adde|(3fgf dg fdcA|ABAG FDD2|
(3fga dg fdec|Addc defg|af (3gfe fdec|dcAG FDD2:|

%%%

